symbolic/32x32/apps/doomseeker.svg

<svg xmlns="http://www.w3.org/2000/svg" width="32" height="32" version="1">
 <path style="fill:#3f3f3f" d="M 2,5 H 16.175 L 23.7,10.757813 V 24.9375 H 2 Z"/>
 <path style="opacity:0.2" d="m 2,6 v 7 h 7 2.8 7 c 2.402508,0 4.2,1.640393 4.2,4 0,2.359607 -1.797687,3.969358 -4.2,4 H 9 V 15 H 2 V 28 H 18.8 C 24.985589,28 30,23.075132 30,17 30,10.924868 24.985589,6 18.8,6 Z"/>
 <path style="fill:#e13c3c" d="m 2,5 v 7 h 7 2.8 7 c 2.402508,0 4.2,1.640393 4.2,4 0,2.359607 -1.797687,3.969358 -4.2,4 H 9 V 14 H 2 V 27 H 18.8 C 24.985589,27 30,22.075132 30,16 30,9.9248678 24.985589,5 18.8,5 Z"/>
 <path style="opacity:0.1;fill:#ffffff" d="M 2 5 L 2 6 L 18.800781 6 C 24.81456 6 29.70667 10.658566 29.974609 16.5 C 29.982264 16.333113 30 16.168742 30 16 C 30 9.9248678 24.98637 5 18.800781 5 L 2 5 z M 2 14 L 2 15 L 9 15 L 9 14 L 2 14 z M 22.951172 16.5 C 22.711611 18.579003 21.02595 19.971618 18.800781 20 L 9 20 L 9 21 L 18.800781 21 C 21.203094 20.969358 23 19.359607 23 17 C 23 16.826401 22.970156 16.665446 22.951172 16.5 z"/>
</svg>

<svg xmlns="http://www.w3.org/2000/svg" width="32" height="32" version="1"><path style="fill:#3f3f3f" d="M2 5h14.175l7.525 5.758v14.18H2z"/><path style="opacity:.2" d="M2 6v7h16.8c2.403 0 4.2 1.64 4.2 4 0 2.36-1.798 3.97-4.2 4H9v-6H2v13h16.8C24.986 28 30 23.075 30 17S24.986 6 18.8 6z"/><path style="fill:#e13c3c" d="M2 5v7h16.8c2.403 0 4.2 1.64 4.2 4 0 2.36-1.798 3.97-4.2 4H9v-6H2v13h16.8C24.986 27 30 22.075 30 16S24.986 5 18.8 5z"/><path style="opacity:.1;fill:#fff" d="M2 5v1h16.8c6.015 0 10.907 4.659 11.175 10.5.007-.167.025-.331.025-.5 0-6.075-5.014-11-11.2-11H2zm0 9v1h7v-1H2zm20.951 2.5c-.24 2.079-1.925 3.472-4.15 3.5H9v1h9.8c2.403-.03 4.2-1.64 4.2-4 0-.174-.03-.335-.049-.5z"/></svg>
